X:930
T:Si Mo Leannnan An Teur (O I Love The Maiden Fair)
C:Joe Buchanan's Scottish Tome - Page 545.3
I:545 3
Z:Carl Allison
R:Waltz
L:1/4
M:3/4
K:Bb
F | "Bb"B2 c | "Bb"d2 B | "Eb"G2 B | "Bb"F3 | "Bb"D2 F | "Bb"F2 d | "Eb"c2 B | "F7"c d2 |
"Bb"B2 c | "Bb"d2 B | "Eb"G2 B | "Bb"F3 | "Bb"D2 F  | "Bb"F2 d  | c3 | B3 |
"Gm"B2 "Ebm"c | "Bb"d2 "Eb"e | "Bb"f2 "Ebm"e | "Gm"d3 | "Gm"d2 "Bbdim"g | "Bb"f2 d | "C7"c2 B | "F7"c d2 |
"Bb"B2 "Eb"c | "Bb"d2 B | "Eb"G2 B | "Bb"F3 | "Bb"D2 F | "Bb"F2 d | c3 | B3 |]
